Images/line.svg

<svg fill="none" height="10" viewBox="0 0 12 10" width="12" xmlns="http://www.w3.org/2000/svg"><path clip-rule="evenodd" d="m0 9.5c0-.13261.0526785-.25979.146447-.35355.093768-.09377.220945-.14645.353553-.14645h7c.13261 0 .25979.05268.35355.14645.09377.09376.14645.22094.14645.35355s-.05268.25979-.14645.35355c-.09376.09377-.22094.14645-.35355.14645h-7c-.132608 0-.259785-.05268-.353553-.14645-.0937685-.09376-.146447-.22094-.146447-.35355zm0-3c0-.13261.0526785-.25979.146447-.35355.093768-.09377.220945-.14645.353553-.14645h11c.1326 0 .2598.05268.3536.14645.0937.09376.1464.22094.1464.35355s-.0527.25979-.1464.35355c-.0938.09377-.221.14645-.3536.14645h-11c-.132608 0-.259785-.05268-.353553-.14645-.0937685-.09376-.146447-.22094-.146447-.35355zm0-3c0-.13261.0526785-.25979.146447-.35355.093768-.09377.220945-.14645.353553-.14645h7c.13261 0 .25979.05268.35355.14645.09377.09376.14645.22094.14645.35355s-.05268.25979-.14645.35355c-.09376.09377-.22094.14645-.35355.14645h-7c-.132608 0-.259785-.05268-.353553-.14645-.0937685-.09376-.146447-.22094-.146447-.35355zm0-3c0-.132608.0526785-.259785.146447-.353553.093768-.0937685.220945-.146447.353553-.146447h11c.1326 0 .2598.0526785.3536.146447.0937.093768.1464.220945.1464.353553s-.0527.259785-.1464.353553c-.0938.093768-.221.146447-.3536.146447h-11c-.132608 0-.259785-.052679-.353553-.146447-.0937685-.093768-.146447-.220945-.146447-.353553z" fill="#000" fill-rule="evenodd"/></svg>

<svg width="12" height="10" viewBox="0 0 12 10" fill="none" xmlns="http://www.w3.org/2000/svg">
<path fill-rule="evenodd" clip-rule="evenodd" d="M0 9.5C0 9.36739 0.0526785 9.24021 0.146447 9.14645C0.240215 9.05268 0.367392 9 0.5 9H7.5C7.63261 9 7.75979 9.05268 7.85355 9.14645C7.94732 9.24021 8 9.36739 8 9.5C8 9.63261 7.94732 9.75979 7.85355 9.85355C7.75979 9.94732 7.63261 10 7.5 10H0.5C0.367392 10 0.240215 9.94732 0.146447 9.85355C0.0526785 9.75979 0 9.63261 0 9.5ZM0 6.5C0 6.36739 0.0526785 6.24021 0.146447 6.14645C0.240215 6.05268 0.367392 6 0.5 6H11.5C11.6326 6 11.7598 6.05268 11.8536 6.14645C11.9473 6.24021 12 6.36739 12 6.5C12 6.63261 11.9473 6.75979 11.8536 6.85355C11.7598 6.94732 11.6326 7 11.5 7H0.5C0.367392 7 0.240215 6.94732 0.146447 6.85355C0.0526785 6.75979 0 6.63261 0 6.5ZM0 3.5C0 3.36739 0.0526785 3.24021 0.146447 3.14645C0.240215 3.05268 0.367392 3 0.5 3H7.5C7.63261 3 7.75979 3.05268 7.85355 3.14645C7.94732 3.24021 8 3.36739 8 3.5C8 3.63261 7.94732 3.75979 7.85355 3.85355C7.75979 3.94732 7.63261 4 7.5 4H0.5C0.367392 4 0.240215 3.94732 0.146447 3.85355C0.0526785 3.75979 0 3.63261 0 3.5ZM0 0.5C0 0.367392 0.0526785 0.240215 0.146447 0.146447C0.240215 0.0526785 0.367392 0 0.5 0H11.5C11.6326 0 11.7598 0.0526785 11.8536 0.146447C11.9473 0.240215 12 0.367392 12 0.5C12 0.632608 11.9473 0.759785 11.8536 0.853553C11.7598 0.947321 11.6326 1 11.5 1H0.5C0.367392 1 0.240215 0.947321 0.146447 0.853553C0.0526785 0.759785 0 0.632608 0 0.5Z" fill="black"/>
</svg>
